X:2003
T:Brightest and Best
T:Morning Star
R:March
C:J P Harding 1892
O:England
Z:Paul Hardy's Xmas Tunebook 2019 (see www.paulhardy.net). Creative Commons cc by-nc-sa licenced.
M:2/2
L:1/8
Q:1/4=140
K:G
"G"B4 A2 G2|"D7"F4 E2 D2|"G"D2 G2 F2 G2|"D"B4 A4|"G"d4 c2 B2|"Em"B4 A2 G2|"D"F2 A2 "A7"G2 E2|"D"D8|
"G"B4 A2 G2|"D"F4 E2 D2|"G"D2 G2 B2 d2|"C"d4 c4|"G"B4 G2 A2|"Em"B4 G2 E2|"D7"D2 E2 F2 A2|"G"G8|]
W:Brightest and best of the sons of the morning,
W:Dawn on our darkness and lend us thine aid;
W:Star of the East, the horizon adorning,
W:Guide where our infant Redeemer is laid.
W:
W:(Bishop Reginald Heber 1783-1826)
% --------------------------------- C ---------------------------------------

